X: 119
T: Little Rain-Drops
%R: air, march
B: "The Everyday Song Book", 1927
F: http://www.library.pitt.edu/happybirthday/pdf/The_Everyday_Song_Book.pdf
Z: 2017 John Chambers <jc:trillian.mit.edu>
M: 2/4
L: 1/8
K: E
% - - - - - - - - - - - - - - - - - - - - - - - - - - - - -
E | E E G G | B2 G G | B G B G | F3 ||
w: 1.~Oh! say where do you come from,   You lit-tle drops of rain,
w: 2.~They say I'm ver-y naught-y,      I've noth-ing else to do
w: 3.~Oh! tell me lit-tle rain-drops,   Is that the way you play,
w: 4.~The lit-tle rain-drops speak not, But pit-ter, pat-ter, pat,
%
G | A A G G | c2 B- B | e B A F | E3 |]
w: That pit-ter, pat-ter, pat-ter*  Down the win-dow-pane?
w: But sit here at the win-dow,\-\- I'd like to play with you.
w: To pit-ter, pat-ter, pat-ter*    All the rain-y day.
w: Means "We can play on this side, Why can't yo play on that?"
% - - - - - - - - - - - - - - - - - - - - - - - - - - - - -
